X:1
T:Fantasie und Fuge
T:in a-Moll
T:Johann Sebastian Bach, Großer Bachist
T:© 2012 
T:© 2012 
T:© 2012 
T:© 2012 
T:© 2012 
T:© 2012 
T:© 2012 
T:© 2012 
T:© 2012 
T:© 2012 
T:© 2012 
T:© 2012 
Z:© 2012
Z:
Z:
Z:
%%score { ( 1 2 5 7 ) | ( 3 4 6 ) }
L:1/8
Q:1/4=105
M:4/4
K:C
V:1 treble nm="Piano" snm="Pno."
V:2 treble 
V:5 treble 
V:7 treble 
V:3 bass 
V:4 bass 
V:6 bass 
V:1
"^Moderato" e4 f4- | f4 e4- | e2 a^g a4- | a4 ^g4 | a2 gf g2 fe | f8- | f2 ed edcB | c8- | %8
 c2 dc BA^G^F | A^G^FE e4- | e4 d4- | d2 cB c2 dc | B4 G2 cB | A4 B4- | B2 A^G A2 Bc | ^F2 B4 e2- | %16
 e4 ^d4 | e2 BA B2 cB | A4 B4- | B2 ed e2 fe | d2 fe f4- | f2 ed e2 fe | d4 g4- | g2 fe f2 gf | %24
 e4 a4- | a2 g^f g2 ag | ^f4 b4- | b2 ag a4- | a2 g^f g4- | g4 ^f4- | f2 e^d e4 | ^f4 B4- | %32
 B2 e^d e4- | e4 ^d4 | e2 dc d2 cB | c8- | c2 BA BAG^F | G8- | G2 AG z4 | E^D^CB, B4- | B4 A4- | %41
 A2 G^F G4 | F8 | E4- EEFG | A4- AABc | d6 c2- | ccBA B4 | A4 d4- | ddcB c2 dc | B4 e4- | %50
 ee^d^c d2 e^f | B8- | B2 AG A4- | AAG^F GABG | EG^FE FGAF | ^DB,^CD E^FGA | B4- B^FGA | G4- GGAB | %58
 c6 B2 | BEFG z cde | f4- f e3- | eAB^c z fga | ^a4- a =a3- | a2 g4 f2 | e8 | d4 g4- | ggfe f2 gf | %67
 e8- | e2 d^c d4 | e4 A4- | A2 d^c d4- | dfed aB^ce- | edc^A dcA=A | ^A8- | A^A=AG AGFE | F8- | %76
 FAGF z4 | D^CB,A, A4 | A4 G4- | G2 FE F2 GF | z Be^g aecA | d8- | d2 cB c2 dc | B2 BA ^A2 cA | %84
 A8 | G8- | GFA^c dB^FA | ^GEGB ecAc | dADc E^GBd | c4- cAce | d4- dBdf | e4 eceg | fdfa ^gbge | %93
 aecA d4- | d2 ed c4- | c2 c2 BdfA | ^GBAG AcBA | e6 a2- | a2 ^g2 z4 | e4 f4- | f4 e4- | %101
 e2 a^g a4- | a4 ^g4 | a2 gf g2 fe | f8- | f2 ed edcB | c8- | c2 dc BA^G^F | A^G^FE e4- | %109
 eBcA- AAB^G | ^G4 A4 | ABcA e2 z A | f2 z A e2 z/ d/c/B/ | A/B/c/A/ dd dc/B/ d/c/B/A/ | %114
 B4 A/B/c/d/ e/A/e/^f/ | g/e/g/a/ b/e/a/b/ c'/b/a/c'/ b2- | b/a/g/b/ a2- a/g/^f/a/ g2- | %117
 g/^f/e/g/ f/e/^d/f/ Bd e2- | e/g/^f/e/ ^d/e/^c/d/ eB g2- | g/f/e/g/ f2- f/e/d/f/ e2- | %120
 e/d/c/e/ d2- d2 z/ B/c/d/ | B2 z/ e/^f/^g/ a2 z/ a/=g/=f/ | g2- g/f/e/g/ f2- f/e/d/f/ | %123
 ^G/B/c/d/ e2 d4- | dc/d/ ed/c/ B4- | BA/B/ cc/d/ e2- e/^d/e/^f/ | ^d2- de/^f/ g z z2 | %127
 z ^F B2 A4- | A/c/B/A/ G/A/^F/A/ G3 G | F3 F E2 z c- | c/^F/^G/A/ B2- B/E/A/G/ A2- | %131
 A/A/G/^F/ G2- G/G/c/B/ c2- | c/c/B/A/ B2- B/B/e/^d/ e2- | e/e/d/^c/ d2- d/d/=c/B/ c2- | %134
 c/c/B/A/ B2- B/A/B/^G/ A/c/^F/E/ | ^D/^F/G/A/ BE- E/G/F/E/ D/F/B/A/ | %136
 G/B/c/d/ e/G/F/E/ D/A/B/c/ d/F/E/D/ | ^GB E2- E2 D/C/B,/A,/ | ^G,E A2- A/^G/A/^F/ G/B/E/D/ | %139
 CEAA AG/F/ A/G/F/E/ | FAdd dc/B/ d/c/B/A/ | BDGG GF/E/ G/F/E/D/ | EGcc c^A/=A/ c/^A/=A/G/ | %143
 ABcA e2 z A | f2 z A e2 z/ d/c/B/ | A/B/c/A/ dd dc/B/ d/c/B/A/ | B4 A2 z2 | z8 | z8 | z8 | z8 | %151
 z2 e2 ^d2 =d2 | ^c2 =c2 B2 ^A2 | A2 d4 ^c2 | d/e/f- f/d/B/e/ cA^F^d | e/^f/g- g/e/^c/a/ =fdB^g | %156
 a/b/c'- c'/a/^f/b/ g/a/^a- a/g/e/=a/ | f/g/^g- g/f/d/=g/ ea ^f2 | %158
 g/^c/d- d/^A/G/e/ f/B/=c- c/^G/F/d/ | ^d/=d/f- f/^d/c/d/ A/d/=d- d/^G/=G/d/ | %160
 g/B/c- c/a/B/c/ B2 ^A2 | Ad/^c/ d4 =c2 | Be/^d/ e2- e2 d2 | ed^ce A/c/d- d/=c/B/A/ | %164
 ^G2 z/ G/A- A/^F/G/A/ B z | z8 | z4 z2 e2 | ^d2 =d2 ^c2 =c2 | B2 e4 ^d2 | %169
 e/B/e- e/d/c/B/ Ad- d/c/B/A/ | ^Ge- e/d/c/e/ d/c/B/d/- d/d/c/B/ | c2- c/e/d/c/ B2- B/d/^c/e/ | %172
 A2 d4 ^c2- | c2- c/=c/B/A/ ^G/B/e- e/a/^g/a/ | d/e/f- f/d/B/e/ c/d/^d- d/c/A/=d/ | %175
 B2 z/ ^c/^d/e/ d2 z/ =d/e/f/ | g/a/^a- a>=a ^d/ z/ z z z/ e/ | a2 z/ a/g/a/ ^a/=a/g- g>g | %178
 f2- f/a/g/f/ e2 f2 | g2- g>f e2 z2 | z4 z4 | z8 | z8 | z8 | z4 ABcA | d2 z A f2 z A | %186
 e2 z/ d/^c/B/ A/B/B/A/ dd | dc/B/ d/c/B/A/ B4- | B^G A2- A/B/c- c/A/^F/B/ | %189
 A/^G/^F/E/ AA- A/G/A/F/ G>A | A8 |] %191
V:2
 [Ac]8 | d4 e4- | e4 d4 | c4 B4 | A4 A4 | A8 | B8- | BBA^G A4- | A4 x4 | x4 E4- | E8 | E4 A4- | %12
 A2 GF x2 AG | F6 GF | E8 | ^D4 E4 | ^F2 AG A2 BA | G2 ^F2 G4 | ^F4 =F4 | E4 A4- | A4 G4 | G4 c4- | %22
 c2 BA B2 cB | A4 d4- | d2 cB c2 dc | B4 e4- | e2 dc d2 ed | c6 dc | B6 cB | A8 | G4 G4 | %31
 A2 G2 ^F4 | E6 ^F2 | G4 ^F4 | E4 E4- | E8 | ^F8- | F^FE^D E4- | E4 ^FE^D^C | x4 B,4- | B,8 | %41
 B,4 E4- | EEDC D4- | DDCB, C4- | CCDE F4- | F2 F2 E4 | D4 G4- | GGFE F2 GF | E4 A4- | %49
 AAG^F G2 AG | ^F8- | F^FE^D EFGE | ^C4 =C4 | x8 | x8 | x8 | z G^FE ^D4 | E4 z4 | z8 | z4 A4- | %60
 A2 GF G2 AG | F4 d4- | d2 c^A c2 dc | ^A4 =A4 | ^A4- A =A3- | A4 G4 | A4 d4- | d2 ^cB c4 | %68
 A4 ^A4- | A2 =AG A4- | A4 G4 | A8- | A8- | A=AG^F G4 | E8- | EED^C D4- | D2 x2 ED^CB, | x4 A,4- | %78
 A,8 | A,4 D4- | D4 x4 | ^F4 ^G4 | A4 A4- | A4 G4- | GECE FDA,C | B,D^CB, CEDC | D8- | D4 C4- | %88
 C2 B,A, B,2 CB, | A,CEG F4- | FDFA G4- | GE^GB A4- | AFAc B4 | z2 E2 ^F2 ^GA | B6 AG | F8 | E8- | %97
 EdcB c4- | c2 B2 z4 | c8 | B8 | A6 B2 | c4 B4 | A4 A4 | A8 | B8- | BBA^G A4 | F4 x4 | x4 E4- | %109
 E4 [DE]4 | D4 ^C4 | z8 | z8 | z8 | z8 | E^FGE A2 z E | c2 z E B2 z/ A/G/^F/ | %117
 E/^F/G/E/ AA AG/F/ A/G/F/E/ | ^F4 E/F/G/A/ B/E/B/^c/ | d2- d/c/B/A/ G/A/B/G/ c/B/A/G/ | %120
 ^F/G/A/F/ B/A/^G/F/ E/F/G/E/ A2- | A/^G/A/B/ c2- c/A/B/c/ d2- | d/c/B/d/ c2- c/B/A/c/ B2- | %123
 B2- B/A/^G/A/- A/c/B/A/ G/A/^F/G/ | A4- A/A/G/^F/ E2- | EE- E<A- A/c/d/B/ c2- | %126
 c/B/A/c/ B2- B z z2 | B,^D- D/E/D/E/- E/G/^F/E/ D/E/^C/D/ | E2 z ^D EB, E2- | %129
 EA, D2- D/B,/C/D/ EA | D3 D C2- C/E/D/C/ | B,2- B,/B,/E/D/ E2- E/G/=F/E/ | %132
 D2- D/D/G/^F/ G2- G/B/A/G/ | ^F2 z/ A/^G/F/ E2- E/A/G/A/ | D2- D/F/E/D/ C4 | B,2 z2 x4 | x8 | x8 | %138
 x8 | x8 | x2 F/D/F/G/ A4- | A/D,/G,/A,/ x6 | x8 | A2 z/ A/G/F/ G2- G/F/E/G/ | %144
 F2- F/E/F/D/ ^G2 z2 | z2 z/ c/B/A/ ^G/B/E- ED/C/ | F z ED DC z2 | z2 E2 ^D2 =D2 | %148
 ^C2 =C2 B,2 E2- | E2 ^D2 E/^F/G- G/E/^C/A/ | FDB,^G A/B/c- c/A/^F/B/ | GE^C^A B^F- F/E/D/G/ | %152
 E^C ^D/E/^F- F/E/B,/=D/ C/D/E- | E/D/A,/C/ B,/G,/B,/D/ G/A/^A- A/G/E/=A/ | FDB,E- EE^D^F | %155
 B2 A2- AA^GB | E2 z2 z G^CA- | AFB,G c/d/^d- d/c/A/=d/ | G2 z2 z4 | z2 G2 ^F2 =F2 | %160
 E2 ^D2 =DG/^F/ G2- | G2 F2 EA/^G/ A2- | A2 G2 ^F4 | E4- E/A,/B,/^C/ D/A,/D- | %164
 D/E/B,/D/ C>C B,E/^F/ ^G/A/B- | B/^G/E/A/ ^F/G/A- A/F/G/B/ E/=F/=G- | %166
 G/E/^F/A/ D/E/=F E2- E/^G/A/c/ | ^F/^G/A- A/F/G/B/ E/F/F- F/E/F/A/ | ^D/E/^F E z z2 A2 | %169
 ^G2 =G2 ^F2 =F2 | E2 A4 ^G2 | A2 z2 z4 | z2 A2 ^G2 =G2 | ^F2 =F2 E2 A2- | A2 ^G2 A>=G ^F2- | %175
 F/E/^F/^G/ A2- A2 z2 | z z/ g/ e/g/^f- f/f/e/^d/ e/g/^c- | c/^c/d/e/ f2- f>f e/d/e | %178
 e/e/d/^c/ d2- d/B/c/e/- e/c/d/f/- | f/d/e/^c/ A/c/d e/d/c/B/ A2- | A2 G/F/E/D/ ^C/B,/C/E/ A, z | %181
 z/ G/A/^A/ =A/G/e/G/ F4 | EEAA A2 z ^G | A2 B2- B/E/^F/^G/ AA | AG- GF/E/ F/A/G/F/ E/G/F/E/ | %185
 D2 z2 z2 A2 | ^G2 =G2 ^F2 =F2 | E2 A4 ^G>B | E2- E^D/E/ ^F z/ F/- FF | E2- E/E/^F/^D/ E4 | %190
 [^CE]8 |] %191
V:3
 E6 DC | B,6 A,B, | C4 DCB,A,- | A,CB,A, E4 | A,4 A,4- | A,G,F,E, D,4 | z2 B,,2 E,4- | %7
 E,2 E,2 A,4- | A,2 A,2 D4- | D4- D2 CB, | C4 B,4 | A,8 | B,4 E4- | E2 DC D2 ED | C8 | B,8 | A,8 | %17
 B,4 E4- | E2 DC D2 ED | C8- | C6 B,2 | C4 z2 C2 | G2 F2 E2 D2 | ^C2 A,2 z2 D2 | A2 G2 ^F2 E2 | %25
 ^D2 B,2 z2 E2 | B2 A2 ^G2 E2 | A2 G2 ^F2 E2 | ^D2 B,2 E2 =D2 | ^C2 ^DE D2 CD | E4 E4 | A,4 B,4 | %32
 C4 A,G,^F,E, | E,G,^F,E, B,4 | E,4 E,4- | E,D,C,B,, A,,4 | z2 ^F,,2 B,,4- | B,,2 B,,2 E,4- | %38
 E,2 E,2 A,4- | A,4- A,2 G,^F, | G,4 ^F,4 | E,4 z E,^F,G, | A,4 z CB,A, | ^G,2 E,2 A,2 =G,2 | %44
 F,2 E,2 D,2 C,2 | B,,G,,A,,B,, C,D,E,F, | G,4- G,A,B,C | D4- DCB,A, | ^G,B,A,G, A,=G,^F,E, | %49
 ^D,^F,E,D, E,=D,C,B,, | A,,^F,G,A, B,CB,A, | G,8- | G,G,^F,E, F,G,A,F, | B,8- | B,2 A,G, A,4- | %55
 A,2 A,2 G,2 ^F,2 | G,2 A,2 B,4- | B,B,^C^D E4- | E2 DC D2 ED | C6 ^C2 | D6 ^C2 | D8- | %62
 D^A,CD ^D2 =A,2 | D4- DEFD | G4 E4 | FGFE DFED | ^C4 z DEF | GFGA G^A=AG | F6 GF | E6 FE | D6 E2 | %71
 F4 E4 | A,6 D2- | DC^A,=A, G,4- | G,2 E,2 A,4- | A,G,F,E, D,4- | D,2 D,2 G,4- | G,6 F,E, | %78
 F,4 E,4 | D,4 z4 | z4 C4- | C2 B,A, B,2 CB, | A,CEG ^FDB,D | G,B,DF ECA,C | F,2 A,2 D,2 F,2- | %85
 F,2 E,D, E,2 F,E, | D,2 F,2 B,,2 D,2 | E,8 | ^F,4 ^G,4 | A,6 A,2 | B,6 B,2 | C6 ^C2 | D6 ED | %93
 C4- CCB,A, | ^G,B,G,E, A,E,C,A,, | D,D,,F,,A,, D,F,A,D | E,DCB, CA,^G,^F, | ^G,B,A,G, A,^F,E,^D, | %98
 E,E,,E,^G, B,DF^G | E6 DC | B,6 A,B, | C4 DCB,A,- | A,CB,A, E4 | A,4 A,4- | A,G,F,E, D,4 | %105
 z2 B,,2 E,4- | E,2 E,2 (A,4 | z4 D4- | D4-) D2 CB, | C4 B,4 | A,8 | z8 | z8 | z8 | z8 | z8 | z8 | %117
 z8 | z8 | z8 | z4 A,B,CA, | E2 z A, F2 z A, | E2 z/ D/C/B,/ A,/B,/C/A,/ DD | %123
 DC/B,/ D/C/B,/A,/ B,4 | A,/E,/A,/B,/ C/A,/C/D/ E2- E/D/C/B,/ | C/B,/C/D/ E2- E/E/^F/^G/ A2- | %126
 A/G/^F/A/ G2- G/F/E/G/ F/E/^D/F/ | A,G,/^F,/ A,/G,/F,/E,/ F,4 | %128
 E,G,,A,,B,, E,,/B,,/E,/D,/ ^C,/D,/B,,/C,/ | %129
 D,/E,/D,/C,/ B,,/C,/A,,/B,,/ C,/D,/C,/B,,/ A,,/B,,/^G,,/A,,/ | %130
 B,,/C,/B,,/A,,/ ^G,,/A,,/^F,,/G,,/ A,,B,,C,A,, | E,E,,E,D, C,D,E,C, | G,G,,G,^F, E,F,G,E, | %133
 B,2 z E, C2 z E, | B,2 z/ A,/^G,/^F,/ E,/F,/G,/E,/ A,A, | A,G,/^F,/ A,/G,/F,/E,/ A,B,CA, | %136
 E2 z A, F2 z A, | E2 z/ D/C/B,/ A,/B,/C/A,/ DD | DC/B,/ D/C/B,/A,/ B,4 | %139
 A,/E,/A,/B,/ C/A,/C/D/ E4- | E/A,/D/E/ z2 z/ A,,/A,/G,/ ^F,/A,/D,/F,/ | G,, z B,/G,/B,/C/ D4- | %142
 D/G,/C/D/ E/C/E/F/ G4- | G/C/D/E/ A,D- D/D/^C/B,/ C2 | z/ A,/B,/^C/ D=C B,2 z2 | z4 z2 z A,- | %146
 A, z ^G, z [E,A,] z z2 | z8 | z8 | z8 | z8 | z8 | z2 A,2 ^G,2 =G,2 | ^F,2 =F,2 E,2 A,2- | %154
 A,2 ^G,2 A,/B,/C- C/A,/^F,/B,/ | G,E,^C,A, D/E/F- F/D/B,/E/ | CA,^F,^D E3 ^C | D3 B, CcAD- | %158
 D>^F GE/G/ C>E =FD/F/ | B,DC^D =D2 z2 | z8 | z8 | z4 z4 | z8 | E,2 ^D,2 z2 D2 | ^C2 =C2 B,2 ^A,2 | %166
 A,2 D2- D/C/B,/D/ C2- | CB,/A,/ B,2- B,A,/B,/ CA,- | A,/C/B,/A,/ G,/^F,/G,- G,/F,/G,/E,/ F,>E, | %169
 E,>B, E2- E/D/C/B,/ A,D- | D/C/B,/D/ C/B,/A,/C/ B,DEE, | A,/E/A/^G/ A2- A/A/=G/^F/ G2- | %172
 G/G/F/E/ F/E/F/D/ B,/D/C/B,/ A,2- | A,2 z2 z4 | z8 | ^G,2 =G,2 z/ A,/B,/^C/ D2 | %176
 ^C2 =C2 B,2 ^A,2 | A,2 D4 ^C2 | DEFD A2 z D | ^A2 z D =A2 z/ G/F/E/ | D/E/F/D/ GG GF/E/ G/F/E/D/ | %181
 E4- EA,DD | D2 C2 B,/B,/C/D/ EE | ED- DC/B,/ C2 z ^C | D2 E2 A,4- | %185
 A,/A,/G,/F,/ E,/G,/F,/E,/ D,/^A/=A/G/ F/E/D/C/ | B,2 A,2 D2 z2 | z ^G,A,C F,DB,D- | %188
 DB, C2- C z A,B, | C4 B,4 | A,8 |] %191
V:4
 A,8 | G,8 | F,8 | E,6 D,2 | C,4 ^C,4 | D,4- D,C,B,,A,, | ^G,,8 | A,,6 B,,C, | D,8 | E,8- | E,8 | %11
 A,,8 | z8 | z8 | E,4 A,4- | A,2 G,^F, G,2 A,G, | ^F,8 | E,8 | ^F,4 ^G,4 | A,6 G,2 | F,4 G,4 | %21
 C,4 z4 | x8 | x8 | x8 | x8 | x8 | x8 | x8 | x8 | E,8 | D,8 | C,8 | B,,6 A,,2 | G,,4 ^G,,4 | %35
 A,,4- A,,G,,^F,,E,, | ^D,,8 | E,,6 ^F,,G,, | A,,8 | B,,8- | B,,8 | E,,4 z x3 | x8 | x8 | x8 | x8 | %46
 x8 | x8 | x8 | x8 | x8 | x8 | x8 | ^D,2 B,,2 E,2 =D,2 | ^C,4 =C,4 | B,,8- | B,,6 B,,2 | %57
 E,4- E,=D=CB, | A,G,^F,E, F,A,^G,B, | A,2 G,2 F,2 E,2 | D,F,G,A, ^A,2 E,2 | F,2 E,2 F,2 D,2 | %62
 G,6 ^F,2 | G,A,^A,C D4- | DDC^A, C2 DC | ^A,8 | A,8 | x8 | D8 | C8 | ^A,8 | A,6 G,2 | F,4 ^F,4 | %73
 G,4- G,F,E,D, | ^C,6 A,,2 | D,4- D,C,^A,,=A,, | G,,8 | A,,8- | A,,8 | D,,4 z4 | x8 | x8 | x8 | %83
 x8 | x8 | x8 | x8 | x8 | x8 | x8 | x8 | x8 | x8 | x8 | x8 | x8 | x8 | x8 | x8 | A,8 | G,8 | F,8 | %102
 E,6 D,2 | C,4 ^C,4 | D,4- D,C,B,,A,, | ^G,,8 | A,,6 B,,C, | D,8 | E,8- | E,8 | E,8 | z8 | z8 | %113
 z8 | z8 | z8 | z8 | z8 | z8 | z8 | z8 | z8 | z8 | z8 | z4 E,^F,G,E, | A,2 z E, C2 z E, | %126
 B,2 z/ A,/G,/^F,/ E,/F,/G,/E,/ A,A, | x8 | x8 | x8 | x8 | x8 | x8 | x8 | x8 | x4 ^F,4 | %136
 E,D, ^C,2 D,D,, D,2- | D,/C,/B,,/D,/ C,/B,,/A,,/G,,/ F,,4 | E,,E,F,C, D,B,,E,E,, | %139
 A,, z z2 z/ E,,/E,/D,/ ^C,/E,/A,,/C,/ | D, z z2 z/ x7/2 | x2 z2 z/ D,,/D,/C,/ B,,/D,/G,,/B,,/ | %142
 C, z z2 z/ G,,/G,/F,/ E,/G,/C,/E,/ | F,4 E,2 z/ A,/G,/A,/ | D,4- D,/C,/D,/B,,/ C,/D,/E,/C,/ | %145
 F,/D,/E,/F,/ B,,/C,/D,/B,,/ E,/^F,/^G,/E,/ A,=F, | D, z E, z A,, z A,2 | ^G,2 =G,2 ^F,2 =F,2 | %148
 E,2 A,4 ^G,2 | A,/B,/C- C/A,/^F,/B,/ G,E,^C,A, | D,/E,/F,- F,/D,/B,,/E,/ C,A,,^F,,^D, | %151
 E,/^F,/G,- G,/E,/^C,/F,/ B,,/F,/G,/A,/ B,2- | B,/G,/E,/A,/ ^F,^D, E,2 z2 | z8 | z8 | z8 | z8 | %157
 z4 z2 C2 | B,2 ^A,2 =A,2 ^G,2 | G,2 C4 B,2 | CA,G,^F, G,2 z/ E,/=F,/G,/ | %161
 ^C,/E,/A,,- A,,/B,/C/D/ ^G,/B,/E,- E,/^F,/=G,/A,/ | %162
 ^D,/^F,/B,,- B,,/E,/F,/G,/ A,/B,/C- C/A,/F,/B,/ | G,/A,/^A,- A,/G,/E,/=A,/ ^F,2 =F,2 | %164
 z4 E,2 E,,2 | A,,2 ^D,,2 E,,E,D,^C, | D,C,B,,A,, ^G,,^G, A,2- | A,^F,B,E,- E,A,,A,F, | %168
 G,^D, E,>^A,, B,,4 | E,, z z2 z4 | z8 | A,,B,,C,A,, E,2 z A,, | F,2 z A,, E,2 z/ D,/^C,/B,,/ | %173
 A,,/B,,/^C,/A,,/ D,D, D,=C,/B,,/ D,/C,/B,,/A,,/ | B,,4 A,,2 A,2 | x4 ^F,2 =F,2 | E,2 A,4 G,2- | %177
 G,2 z/ F,/E,/F,/ G,/A,/^A,- A,/G,/E,/=A,/ | D, z z2 z4 | z2 D,2 ^C,2 =C,2 | %180
 B,,2 ^A,,2 =A,,2 D,2- | D,2 ^C,2 D,/A,,/D,/E,/ F,/D,/F,/G,/ | %182
 A,/E,,/A,,/B,,/ C,/A,,/C,/D,/ E,E,, z/ E,/D,/E,/ | %183
 ^F,/E,/F,/A,/ ^G,/B,/A,/G,/ A,A,, z/ A,,/G,,/A,,/ | B,,/A,,/B,,/D,/ ^C,/E,/D,/C,/ D,2 =C,2 | %185
 B,,2 ^C,2 D,4- | D,/D,/^C,/B,,/ C,/E,/A,,/B,,/ =C,/E,/D,/C,/ B,,/A,,/^G,,/B,,/ | %187
 C,, z z F, D,/E,/F,- F,/D,/B,,/E,/ | C,/D,/E,- E,/C,/A,,/C,/ ^D,,2 z ^D, | E,8 | A,,8 |] %191
V:5
 x8 | B8 | A6 B2 | e4 e4 | e4 e4- | e2 d^c d4- | d2 x6 | x4 E4 | F4 x4 | x4 [^GB]4- | %10
 [GB]2 A4 ^G2 | A4 x4 | x8 | x8 | x8 | x8 | x8 | x8 | x8 | x8 | x4 d4 | c4 x4 | x8 | x8 | x8 | x8 | %26
 x8 | x8 | x8 | x8 | B4 c4- | c4 B4- | B4 A4 | B4 B4 | B4 B4- | B2 A^G A4- | A2 x6 | x4 B,4 | %38
 C4 x4 | x4 ^F4- | F2 E4 x2 | E4 x4 | x8 | x8 | x8 | x8 | x8 | x8 | x8 | x8 | x8 | x8 | x8 | x8 | %54
 x8 | x8 | x8 | x8 | x8 | x8 | x8 | x8 | x8 | x8 | x8 | x8 | x8 | x8 | x8 | x8 | x8 | x8 | x8 | %73
 x4 D4 | x8 | x4 A,4 | ^A,2 x6 | x4 E4 | E2 D4 ^C2 | D4 x4 | E8 | x8 | x8 | x8 | x8 | x8 | x8 | %87
 x8 | x8 | x8 | x8 | x8 | x8 | x8 | x8 | x8 | x8 | x8 | x8 | A8 | d4 e4- | e4 d4 | e4 e4 | e4 e4- | %104
 e2 d^c d4- | d2 x6 | x4 (E4 | A4) x4 | x4 B4- | B x7 | E8 | x8 | x8 | x8 | x8 | x8 | x8 | x8 | %118
 x8 | x8 | x8 | x8 | x8 | x8 | x8 | x8 | x8 | x8 | x8 | x8 | x8 | x8 | x8 | x8 | x8 | x8 | x8 | %137
 x8 | x8 | x8 | x8 | x8 | x8 | x8 | x8 | x8 | x8 | x8 | x8 | x8 | x8 | x8 | x8 | x8 | x8 | x8 | %156
 x8 | x8 | x8 | x8 | x8 | x8 | x8 | x8 | x8 | x8 | x8 | x8 | x8 | x8 | x8 | x8 | x8 | x8 | x8 | %175
 x8 | x8 | x8 | x8 | x8 | x8 | x8 | x8 | x8 | x8 | x8 | x8 | x8 | x8 | x8 | x8 |] %191
V:6
 x8 | x8 | x8 | x8 | E,4 E,4 | x8 | x8 | x8 | x4 z2 B,2- | B,4 x4 | x8 | x8 | x8 | x8 | x8 | x8 | %16
 x8 | x8 | x8 | x8 | x8 | x8 | x8 | x8 | x8 | x8 | x8 | x8 | x8 | x8 | B,6 A,G, | ^F,6 E,F, | %32
 G,4 z4 | x8 | B,,4 B,,4 | x8 | x8 | x8 | x4 z2 ^F,2- | F,4 x4 | x8 | x8 | x8 | x8 | x8 | x8 | x8 | %47
 x8 | x8 | x8 | x8 | x8 | x8 | x8 | x8 | x8 | x8 | x8 | x8 | x8 | x8 | x8 | x8 | x8 | x8 | x8 | %66
 x8 | x8 | x8 | x8 | x8 | x8 | x8 | x8 | x8 | x8 | x6 E,2- | E,6 x2 | x8 | x8 | x8 | x8 | x8 | x8 | %84
 x8 | x8 | x8 | x8 | x8 | x8 | x8 | x8 | x8 | x8 | x8 | x8 | x8 | x8 | x8 | x8 | x8 | x8 | x8 | %103
 E,4 E,4 | x8 | x8 | x8 | A,2 A,2 z2 B,2- | B,4 x4 | x8 | A,,8 | x8 | x8 | x8 | x8 | x8 | x8 | x8 | %118
 x8 | x8 | x8 | x8 | x8 | x8 | x8 | x8 | x8 | x8 | x8 | x8 | x8 | x8 | x8 | x8 | x8 | x8 | x8 | %137
 x8 | x8 | x8 | x8 | x8 | x8 | x8 | x8 | x8 | x8 | x8 | x8 | x8 | x8 | x8 | x8 | x8 | x8 | x8 | %156
 x8 | x8 | x8 | x8 | x8 | x8 | x8 | x8 | x8 | x8 | x8 | x8 | x8 | x8 | x8 | x8 | x8 | x8 | x8 | %175
 x8 | x8 | x8 | x8 | x8 | x8 | x8 | x8 | x8 | x8 | x8 | x8 | x8 | x8 | x8 | x8 |] %191
V:7
 x8 | x8 | x8 | x8 | x8 | x8 | x8 | x8 | x8 | x8 | x8 | x8 | x8 | x8 | x8 | x8 | x8 | x8 | x8 | %19
 x8 | x8 | x8 | x8 | x8 | x8 | x8 | x8 | x8 | x8 | x8 | x8 | x8 | x8 | x8 | x8 | x8 | x8 | x8 | %38
 x8 | x4 ^D4- | D2 x4 ^D2 | x8 | x8 | x8 | x8 | x8 | x8 | x8 | x8 | x8 | x8 | x8 | x8 | x8 | x8 | %55
 x8 | x8 | x8 | x8 | x8 | x8 | x8 | x8 | x8 | x8 | x8 | x8 | x8 | x8 | x8 | x8 | x8 | x8 | x8 | %74
 x8 | x8 | x8 | x4 ^C4 | ^C2 x6 | x8 | x8 | x8 | x8 | x8 | x8 | x8 | x8 | x8 | x8 | x8 | x8 | x8 | %92
 x8 | x8 | x8 | x8 | x8 | x8 | x8 | x8 | x8 | x8 | x8 | x8 | x8 | x8 | x8 | x8 | x4 ^G4- | G x7 | %110
 x8 | x8 | x8 | x8 | x8 | x8 | x8 | x8 | x8 | x8 | x8 | x8 | x8 | x8 | x8 | x8 | x8 | x8 | x8 | %129
 x8 | x8 | x8 | x8 | x8 | x8 | x8 | x8 | x8 | x8 | x8 | x8 | x8 | x8 | x8 | x8 | x8 | x8 | x8 | %148
 x8 | x8 | x8 | x8 | x8 | x8 | x8 | x8 | x8 | x8 | x8 | x8 | x8 | x8 | x8 | x8 | x8 | x8 | x8 | %167
 x8 | x8 | x8 | x8 | x8 | x8 | x8 | x8 | x8 | x8 | x8 | x8 | x8 | x8 | x8 | x8 | x8 | x8 | x8 | %186
 x8 | x8 | x8 | x8 | x8 |] %191

